logo.cd13699a.svg

<svg width="58" height="63" viewBox="0 0 58 63" fill="none" xmlns="http://www.w3.org/2000/svg">
  <path d="M24.0126 0.799998V26H19.2246L6.6606 10.7V26H0.900598V0.799998H5.7246L18.2526 16.1V0.799998H24.0126ZM46.5708 20.6H34.8708L32.6388 26H26.6628L37.8948 0.799998H43.6548L54.9228 26H48.8028L46.5708 20.6ZM44.7348 16.172L40.7388 6.524L36.7428 16.172H44.7348ZM23.8326 62L23.7966 46.88L16.3806 59.336H13.7526L6.3726 47.204V62H0.900598V36.8H5.7246L15.1566 52.46L24.4446 36.8H29.2326L29.3046 62H23.8326ZM46.4794 62.432C42.8794 62.432 40.0714 61.436 38.0554 59.444C36.0634 57.452 35.0674 54.608 35.0674 50.912V36.8H40.8994V50.696C40.8994 55.208 42.7714 57.464 46.5154 57.464C48.3394 57.464 49.7314 56.924 50.6914 55.844C51.6514 54.74 52.1314 53.024 52.1314 50.696V36.8H57.8914V50.912C57.8914 54.608 56.8834 57.452 54.8674 59.444C52.8754 61.436 50.0794 62.432 46.4794 62.432Z" fill="#0F0E08"></path>
</svg>

<svg xmlns="http://www.w3.org/2000/svg" width="58" height="63" fill="none"><path fill="#0F0E08" d="M24.013.8V26h-4.788L6.66 10.7V26H.9V.8h4.824l12.528 15.3V.8zM46.57 20.6h-11.7L32.639 26h-5.976L37.895.8h5.76L54.923 26h-6.12zm-1.836-4.428-3.996-9.648-3.996 9.648zM23.833 62l-.036-15.12-7.416 12.456h-2.628l-7.38-12.132V62H.9V36.8h4.824l9.432 15.66 9.288-15.66h4.788l.072 25.2zm22.646.432q-5.4 0-8.424-2.988-2.988-2.988-2.988-8.532V36.8H40.9v13.896q0 6.768 5.616 6.768 2.736 0 4.176-1.62 1.44-1.656 1.44-5.148V36.8h5.76v14.112q0 5.544-3.024 8.532-2.988 2.988-8.388 2.988"/></svg>
